X: 1
T:Craig's Pipes
T:Greig's Pipes
R:reel
Z:id:hn-reel-191
M:C|
K:G
~B3A BAGA|B2GB AGEG|1 ~B3A BAGB|cABG AGEG:|2 Bd~d2 eBdB|AcBG AGEG||
DG~G2 DGBG|DGBG AGEG|DGGF GABc|d2BG ABGE|
DG~G2 AGBG|DGBG AGEG|DGGF GABc|dBAc BG~G2||
|:d2 (3Bcd edge|dGBG AGEG|d2 (3Bcd eg~g2|1 agbg ageg:|2 ~a3b aged||
